X:1
T:Title
%%score ( 1 2 ) ( 3 4 )
L:1/8
Q:1/4=90
M:9/8
K:Bb
V:1 bass nm="Strings 1, Soprano"
V:2 bass 
V:3 bass nm="Strings 1, Bass"
V:4 bass 
V:1
 z3 z3 [B,D]2 [B,_D] | [B,D]3- [B,D]2 [F,B,] B,[K:treble]C[B,D] | [B,E]3 [B,D]3 [DF]2 [CE] | %3
w: 1.~Nine ty|nine~ * were~ safe * ly~|shel tered,~ Ly ing~|
 [B,D]3- [B,D]2 [B,F] [A,E]2 [B,D] | [A,C]3 .[CE]3[K:bass] [B,D]2 [B,_D] | %5
w: in~ * the~ Shep herd's~|fold;~ * On ly~|
 [B,D]3- [B,D]2 [F,B,] B,[K:treble]C[B,D] | [B,E]3 [B,D]3 [DF]2 [CE] | %7
w: one~ * small~ lamb~ * had~|wan dered~ O'er~ the~|
 [B,D]3- [B,D]2 [B,F][K:bass] [A,E]2 [A,C] | [F,B,]6[K:treble] [DF]2 [DF] | %9
w: moun * tains~ bare~ and~|cold.~ * *|
 [CF]3- [CF]2 [A,C] [DF]2 [CE] | [CE]3 [B,D]3 [DF]2 [DF] | [CF]3- [CF]2 [A,C] [DF]2 [CE] | %12
w: |||
 [CE]3[K:bass] .[B,D]3 [B,D]2 [B,_D] | [B,D]3- [B,D]2 [F,B,] B,[K:treble]C[B,D] | %14
w: ||
 [B,E]3 [B,D]3 [DF]2 [CE] | [B,D]3- [B,D]2 [B,F][K:bass] [A,E]2 [A,C] | [F,B,]6 z3 |] %17
w: |||
V:2
 x9 | z3 z3 .F,3[K:treble] | x9 | x9 | x6[K:bass] x3 | z3 z3 .F,3[K:treble] | x9 | x6[K:bass] x3 | %8
 x6[K:treble] x3 | x9 | x9 | x9 | x3[K:bass] x6 | z3 z3 .F,3[K:treble] | x9 | x6[K:bass] x3 | x9 |] %17
V:3
 z3 z3 [B,,F,]2 [B,,F,] | [B,,F,]3- [B,,F,]2 [B,,D,] D,E,[B,,F,] | %2
 [B,,G,]3 [B,,F,]3 [B,,B,]2 [B,,F,] | [B,,F,]3- [B,,F,]2 [D,F,] [C,F,]2 [B,,F,] | %4
 [F,,F,]6 [B,,F,]2 [B,,F,] | [B,,F,]3- [B,,F,]2 [B,,D,] D,E,[B,,F,] | %6
 [B,,G,]3 [B,,F,]3 [B,,B,]2 [B,,F,] | [B,,F,]3- [B,,F,]2 [D,F,] [C,F,]2 [F,,E,] | %8
 [B,,D,]6 [B,,B,]2 [B,,B,] | [F,A,]3- [F,A,]2 F, [F,B,]2 F, | [B,,F,]3 [B,,F,]3 [B,,B,]2 [B,,B,] | %11
 [F,A,]3- [F,A,]2 F, [F,B,]2 F, | [B,,F,]6 [B,,F,]2 [B,,F,] | %13
 [B,,F,]3- [B,,F,]2 [B,,D,] D,E,[B,,F,] | [B,,G,]3 [B,,F,]3 [B,,B,]2 [B,,F,] | %15
 [B,,F,]3- [B,,F,]2 [D,F,] [C,F,]2 [F,,E,] | [B,,D,]6 z3 |] %17
V:4
 x9 | z3 z3 .B,,3 | x9 | x9 | x9 | z3 z3 .B,,3 | x9 | x9 | x9 | x9 | x9 | x9 | x9 | z3 z3 .B,,3 | %14
 x9 | x9 | x9 |] %17

